X: 3
T: The Boys Of Ballinahinch
R: reel
M: 4/4
L: 1/8
K: Dmaj
f2 df eB ~B2 | ~d3 e fgag | f2 df edBe | dBAF E/F/E D2 |
dcdf eB~B2 | ~d3 e fgag | f2 df edBe | dBAF E/F/E D2 ||
~a3 b afdf | afdf afdg | faa^g afdf | gfed B/c/d ea |
faa^g afdf | abaf gfga | aggf gfef | g2 gf gbag |]


Tune 1348	Setting 14696

